X: 1750
T: New Parliament House Jig
C:John Colville, Toowoomba, Qld
B: australian traditional tunes wiki
M:6/8
L:1/8
R: Jig
Q: 3/8=100
K:G
V:1 
|:GAG GBd|bab gdB|ceg dBG|dBG A2D|
GAG GBd|bab gdB|ceg dBG|ecF G2:|
|:B|ded gfe|ded dBG|ded gfe|dcB A2B|
ded gfe|ded dBG|ceg dBG|ecF G2:|
|:f|gfg gfe|ded dBG|gfg gfg|aba a2f|
gfg gfe|ded dBG|ceg dBG|ecF G3:|
|:ece gfe|ded dBG|ece gfe|dcB A3|
ece gfe|ded dBD|ceg dBG|ecF G3:|
% abcbook-tune_id 6342d53a30f95bcbdb5ec1e6


% abcbook-boost 0
% abcbook-tablature 
% abcbook-transpose 
% abcbook-lastupdated 1665324381718
% abcbook-soundfonts 
% abcbook-repeats 1
% NFF Book 2019
% Bush Traditions recording played by John Colville

